img/psyh-hero-bg.svg

<svg width="824" height="432" viewBox="0 0 824 432" fill="none" xmlns="http://www.w3.org/2000/svg">
<path d="M822.3 136.735C766.6 131.635 716.4 109.935 680.3 66.1346C668.8 52.1346 658.9 32.7346 667.1 16.5346C673 4.9346 687.6 -0.865397 700.4 1.5346C713.2 3.9346 724 13.3346 730.2 24.8346C736.4 36.3346 738.4 49.6346 738.3 62.7346C738.1 88.5346 729.7 114.635 713 134.335C696.3 154.035 671.1 166.835 645.3 166.635C627.5 166.535 609.3 160.535 592.4 165.935C572 172.335 560 192.935 551.2 212.435C539.5 238.435 522 279.235 486 270.435C473.9 267.535 464.5 258.435 454.2 251.535C443.9 244.635 430.3 239.635 419.3 245.435C408 251.435 400.2 268.035 388 264.535C379.8 262.235 375.8 251.335 367.4 250.035C353.5 247.935 351.4 270.135 341.1 279.635C323.1 296.235 300.9 273.835 285.3 266.135C264.2 255.835 240.3 250.235 217.1 248.335C149.3 242.735 87.4 268.535 50.4 326.535C30.5 357.735 19.2001 393.735 12.2001 430.035C53.9001 398.135 85.9001 353.535 102.6 303.835C119 255.235 124.1 192.735 105.6 143.935C89.7001 102.035 50.5 64.9346 10 47.2346C7 45.9346 4 44.7346 1 43.6346" stroke="#CBEAFF" stroke-width="2" stroke-miterlimit="10" stroke-linecap="round" stroke-linejoin="round"/>
</svg>

<svg width="824" height="432" fill="none" xmlns="http://www.w3.org/2000/svg"><path d="M822.3 136.735c-55.7-5.1-105.9-26.8-142-70.6-11.5-14-21.4-33.4-13.2-49.6 5.9-11.6 20.5-17.4 33.3-15 12.8 2.4 23.6 11.8 29.8 23.3 6.2 11.5 8.2 24.8 8.1 37.9-.2 25.8-8.6 51.9-25.3 71.6-16.7 19.7-41.9 32.5-67.7 32.3-17.8-.1-36-6.1-52.9-.7-20.4 6.4-32.4 27-41.2 46.5-11.7 26-29.2 66.8-65.2 58-12.1-2.9-21.5-12-31.8-18.9-10.3-6.9-23.9-11.9-34.9-6.1-11.3 6-19.1 22.6-31.3 19.1-8.2-2.3-12.2-13.2-20.6-14.5-13.9-2.1-16 20.1-26.3 29.6-18 16.6-40.2-5.8-55.8-13.5-21.1-10.3-45-15.9-68.2-17.8-67.8-5.6-129.7 20.2-166.7 78.2-19.9 31.2-31.2 67.2-38.2 103.5 41.7-31.9 73.7-76.5 90.4-126.2 16.4-48.6 21.5-111.1 3-159.9-15.9-41.9-55.1-79-95.6-96.7-3-1.3-6-2.5-9-3.6" stroke="#CBEAFF" stroke-width="2" stroke-miterlimit="10" stroke-linecap="round" stroke-linejoin="round"/></svg>
